!!!COM: Palestrina, Giovanni Perluigi da
!!!OPR: Missa O magnum mysterium
!!!OMD: Benedictus
!!!OTL: First Section
**kern	**kern	**kern
*Icalto	*Icalto	*Icant
!Altus 2	!Altus 1	!Cantus
*clefG2	*clefG2	*clefG2
*k[]	*k[]	*k[]
*E:phr	*E:phr	*E:phr
*M4/2	*M4/2	*M4/2
=1	=1	=1
0r	0A	0r
=2	=2	=2
0r	1A	0r
.	1d	.
=3	=3	=3
0r	2c	0e
.	2c	.
.	4A	.
.	4B	.
.	4c	.
.	4d	.
=4	=4	=4
0r	4e	1e
.	4f	.
.	4g	.
.	4e	.
.	1f	1a
=5	=5	=5
0r	1e	2g
.	.	2g
.	2r	4e
.	.	4f
.	2e	4g
.	.	4a
=6	=6	=6
0r	2g	4b
.	.	4cc
.	2g	4dd
.	.	4b
.	2a	2cc
.	[2f	[2dd
=7	=7	=7
0A	2f]	2dd]
.	4e	4cc
.	4d	4b
.	2e	2.cc
.	[2f	.
.	.	4b
=8	=8	=8
1A	4f]	4a
.	4e	4g
.	2.a	4f
.	.	4e
1d	.	1f
.	4g	.
.	[2f	.
=9	=9	=9
2c	2f]	1g
2c	2e	.
4A	2f	2.a
4B	.	.
4c	4e	.
4d	4d	4b
=10	=10	=10
4e	4c	2cc
4f	4d	.
4g	2e	2b
4e	.	.
1f	2A	1a
.	[2a	.
=11	=11	=11
2.e	2a]	1b
.	2g#	.
4d	.	.
2c#	2.a	1r
[2d	.	.
.	4g	.
=12	=12	=12
2d]	2f	0a
4c	4e	.
4B	4d	.
2c#	2e	.
4d	4f	.
4e	4e	.
=13	=13	=13
4f	4d	1a
4g	4c	.
1a	4c	.
.	8B	.
.	8A	.
.	1B	1dd
2g#	.	.
=14	=14	=14
1a	0A	2cc
.	.	2cc
2r	.	4a
.	.	4b
[2e	.	4cc
.	.	4dd
=15	=15	=15
2e]	2r	4cc
.	.	4b
2e	1A	4a
.	.	4g
1a	.	4f
.	.	4e
.	2A	[2a
=16	=16	=16
2f	1d	4a]
.	.	4g
1a	.	1f
.	2c	.
2g	2c	2e
=17	=17	=17
2f	4A	2.a
.	4B	.
4e	4c	.
4d	4d	4b
4c	4e	1cc
4d	4f	.
4e	4g	.
4c	4e	.
=18	=18	=18
4d	4f	1a
4e	4g	.
2f	1a	.
1e	.	1b
.	2g#	.
=19	=19	=19
2r	2.a	1a
2c	.	.
.	4g	.
2d	2f	2r
2e	2e	2g
=20	=20	=20
1.f	1d	2a
.	.	2b
.	1A	[1cc
4e	.	.
4d	.	.
=21	=21	=21
4e	0r	2cc]
4f	.	.
1g	.	4b
.	.	4a
.	.	4b
.	.	4cc
2f	.	[2dd
=22	=22	=22
1e	2r	2dd]
.	2A	2cc
2d	2B	2b
2c	2c	[2a
=23	=23	=23
1B	1.d	2a]
.	.	2g
1A	.	2f
.	4c	4e
.	4B	4d
=24	=24	=24
1r	4c	4e
.	4d	4f
.	4e	4g
.	4c	4e
2r	4d	4f
.	4e	4g
2d	2f	2a
=25	=25	=25
2e	2e	2g
2f	1d	2f
[1g	.	1e
.	2c	.
=26	=26	=26
2g]	1d	0d
4f	.	.
4e	.	.
4f	2r	.
4g	.	.
4a	2d	.
4f	.	.
=27	=27	=27
2g	2e	2r
2f	2f	2a
2e	[1g	2b
2e	.	2cc
=28	=28	=28
1d	2g]	1.dd
.	4f	.
.	4e	.
1r	4f	.
.	4g	.
.	[2a	4cc
.	.	4b
=29	=29	=29
1r	4a]	2cc
.	4g	.
.	4f	2.dd
.	4e	.
1B	2d	.
.	.	4cc
.	[2g	2b
=30	=30	=30
2c	2g]	2a
2d	2f#	2a
[1e	4g	[1g
.	4f	.
.	4e	.
.	4d	.
=31	=31	=31
2e]	2c	1g]
4d	4B	.
4c	4A	.
2d	2G	2r
2d	2B	2g
=32	=32	=32
2e	2c	2a
2f	2d	2b
2g	4e	[1cc
.	8d	.
.	8e	.
[2a	2f	.
=33	=33	=33
2a]	1e	2cc]
4g	.	4b
4f#	.	4a
2g	1r	4b
.	.	4cc
4f	.	2dd
4e	.	.
=34	=34	=34
4f	2r	4a
4g	.	4b
1a	2c	4cc
.	.	4a
.	2d	2b
2g#	2e	2b
=35	=35	=35
4a	1.f	[0a
4g	.	.
4f	.	.
4e	.	.
2d	.	.
4c#	4e	.
4B	4d	.
=36	=36	=36
2c#	2e	0a]
1d	1f	.
2A	2e	.
=37	=37	=37
[0A	[0e	[0a
=38	=38	=38
0A]	0e]	0a]
*-	*-	*-
!!!CDT: 1525/^1526/-1594/2/2
!!!OCY: Italia
!!!AGN: Mass (Parody)
!!!AST: renaissance, vocal
!!!ASW: Motet 1569 (Palestrina)
!!!PWK: Masses, Book 4
!!!RNB: Cadence finals: A,C,G,F
!!!YOR: Le Opere Complete, v. 10, p. 150
!!!YOO: Rome, Italy: Fratelli Scalera
!!!END: 1992//
!!!EED: John Miller
!!!YEC: Copyright 2000, John Miller
!!!YEN: United States of America
!!!YEM: Rights to all derivative electronic formats reserved.
!!!YEM: Refer to licensing agreement for further details.
!!!YEM: This file must be accompanied by the licensing agreement.
!!!YEM: A copy of the licensing agreement may be found at http://www.music-cog.ohio-state.edu/HumdrumDatabases/Palestrina/license.txt
!!!EMD: converted to Humdrum by Bret Aarden
